ai_diffusion/icons/sd-version-krea2-light.svg

<?xml version="1.0" encoding="UTF-8" standalone="no"?>
<svg
   version="1.1"
   viewBox="0 0 135.46667 135.46667"
   height="512"
   width="512"
   id="svg5"
   sodipodi:docname="sd-version-krea2-light.svg"
   inkscape:version="1.4.4 (dcaf3e7d9e, 2026-05-05)"
   xmlns:inkscape="http://www.inkscape.org/namespaces/inkscape"
   xmlns:sodipodi="http://sodipodi.sourceforge.net/DTD/sodipodi-0.dtd"
   xmlns="http://www.w3.org/2000/svg"
   xmlns:svg="http://www.w3.org/2000/svg">
  <defs
     id="defs5" />
  <sodipodi:namedview
     id="namedview5"
     pagecolor="#ffffff"
     bordercolor="#000000"
     borderopacity="0.25"
     inkscape:showpageshadow="2"
     inkscape:pageopacity="0.0"
     inkscape:pagecheckerboard="0"
     inkscape:deskcolor="#d1d1d1"
     inkscape:zoom="1.5742188"
     inkscape:cx="256"
     inkscape:cy="256"
     inkscape:window-width="1692"
     inkscape:window-height="1059"
     inkscape:window-x="0"
     inkscape:window-y="0"
     inkscape:window-maximized="1"
     inkscape:current-layer="svg5" />
  <rect
     ry="24.035408"
     rx="21.166666"
     y="25.527931"
     x="1.7008928"
     height="90.132782"
     width="132.29167"
     style="fill:#3d3d3d;fill-opacity:1"
     id="rect1" />
  <g
     transform="matrix(3.8951213,0,0,3.8951213,20.267428,24.101348)"
     id="g4"
     style="fill:#c8c8c8;fill-opacity:1">
    <path
       fill="#3d3d3d"
       d="M 8.34057,1.26646 C 10.1061,1.14218 11.6638,2.37142 11.8911,4.06824 12.1069,5.68015 11.0037,7.23915 9.34608,7.60419 8.93062,7.69566 8.46886,7.67023 8.02919,7.72601 6.95925,7.86191 6.04308,8.30843 5.2807,9.06558 L 5.27279,9.06966 5.26385,9.0689 5.2568,9.06354 5.25394,9.05533 C 5.25366,9.04931 5.25521,9.04398 5.25861,9.03933 5.26343,9.03249 5.26583,9.02497 5.26583,9.01677 5.25535,7.76661 5.2521,6.253 5.25606,4.47593 5.25946,2.79675 6.58613,1.38951 8.34057,1.26646 Z"
       id="path1"
       style="fill:#c8c8c8;fill-opacity:1" />
    <path
       fill="#3d3d3d"
       d="M 8.5264,15.3045 C 6.27918,15.2869 4.66832,13.0758 5.44996,11.0041 5.88114,9.86055 6.9457,9.0267 8.20737,8.89545 8.59097,8.85566 9.05188,8.86591 9.42189,8.79701 11.322,8.44386 12.7897,6.99068 13.0867,5.14047 13.1525,4.7299 13.1181,4.24058 13.215,3.805 c 0.4486,-2.01592 2.7586,-3.147131 4.6987,-2.23576 1.0115,0.47578 1.6895,1.37402 1.8573,2.44699 0.0345,0.22011 0.0457,0.49273 0.0335,0.81785 -0.22,5.84142 -5.2089,10.51882 -11.2781,10.47042 z"
       id="path2"
       style="fill:#c8c8c8;fill-opacity:1" />
    <path
       fill="#3d3d3d"
       d="m 11.3567,16.2337 c -0.0102,-0.0047 -0.0171,-0.0115 -0.0208,-0.0205 -7e-4,-0.0018 -0.001,-0.0038 -9e-4,-0.0057 10e-5,-0.0019 6e-4,-0.0038 0.0016,-0.0055 9e-4,-0.0017 0.0022,-0.0032 0.0037,-0.0044 0.0016,-0.0012 0.0034,-0.002 0.0054,-0.0025 2.3055,-0.5277 4.303,-1.5893 5.9923,-3.1849 0.0303,-0.0287 0.0579,-0.0265 0.0828,0.0066 0.271,0.3568 0.554,0.7403 0.7808,1.1066 0.932,1.5045 1.4601,3.134 1.5841,4.8887 0.0249,0.3538 0.0327,0.6271 0.0234,0.8199 -0.0837,1.705 -1.5106,3.0806 -3.3093,3.0909 -1.5926,0.0086 -2.9927,-1.0779 -3.2952,-2.5979 -0.0713,-0.3597 -0.0493,-0.8581 -0.11,-1.2383 -0.1875,-1.1698 -0.7591,-2.1165 -1.7149,-2.8403 -0.0043,-0.0036 -0.0119,-0.0078 -0.023,-0.0127 z"
       id="path3"
       style="fill:#c8c8c8;fill-opacity:1" />
    <path
       fill="#3d3d3d"
       d="M 7.98752,22.874 C 6.63495,22.6386 5.5466,21.5882 5.30446,20.2814 5.27132,20.1026 5.25476,19.8301 5.25476,19.464 c -2.9e-4,-1.4413 -5.7e-4,-2.8827 -8.5e-4,-4.3243 0,-0.0142 0.00538,-0.0165 0.01614,-0.007 0.88444,0.7863 1.81392,1.2666 3.02801,1.3466 0.00113,2e-4 0.10988,0.0038 0.32625,0.0106 1.58069,0.0505 2.91969,1.0865 3.22849,2.5914 0.4571,2.2251 -1.5573,4.1943 -3.86528,3.7927 z"
       id="path4"
       style="fill:#c8c8c8;fill-opacity:1" />
  </g>
</svg>

<svg version="1.1" viewBox="0 0 135.46667 135.46667" height="512" width="512" xmlns="http://www.w3.org/2000/svg">
  <g>
    <rect ry="24.035408" rx="21.166666" y="25.527931" x="1.7008928" height="90.132782" width="132.29167" style="fill:#3d3d3d;fill-opacity:1"></rect>
    <g transform="translate(29.2,35.5) scale(3.2)">
      <path fill="#c8c8c8" d="M8.34057 1.26646C10.1061 1.14218 11.6638 2.37142 11.8911 4.06824C12.1069 5.68015 11.0037 7.23915 9.34608 7.60419C8.93062 7.69566 8.46886 7.67023 8.02919 7.72601C6.95925 7.86191 6.04308 8.30843 5.2807 9.06558L5.27279 9.06966L5.26385 9.0689L5.2568 9.06354L5.25394 9.05533C5.25366 9.04931 5.25521 9.04398 5.25861 9.03933C5.26343 9.03249 5.26583 9.02497 5.26583 9.01677C5.25535 7.76661 5.2521 6.253 5.25606 4.47593C5.25946 2.79675 6.58613 1.38951 8.34057 1.26646Z"></path>
      <path fill="#c8c8c8" d="M8.5264 15.3045C6.27918 15.2869 4.66832 13.0758 5.44996 11.0041C5.88114 9.86055 6.9457 9.0267 8.20737 8.89545C8.59097 8.85566 9.05188 8.86591 9.42189 8.79701C11.322 8.44386 12.7897 6.99068 13.0867 5.14047C13.1525 4.7299 13.1181 4.24058 13.215 3.805C13.6636 1.78908 15.9736 0.657869 17.9137 1.56924C18.9252 2.04502 19.6032 2.94326 19.771 4.01623C19.8055 4.23634 19.8167 4.50896 19.8045 4.83408C19.5845 10.6755 14.5956 15.3529 8.5264 15.3045Z"></path>
      <path fill="#c8c8c8" d="M11.3567 16.2337C11.3465 16.229 11.3396 16.2222 11.3359 16.2132C11.3352 16.2114 11.3349 16.2094 11.335 16.2075C11.3351 16.2056 11.3356 16.2037 11.3366 16.202C11.3375 16.2003 11.3388 16.1988 11.3403 16.1976C11.3419 16.1964 11.3437 16.1956 11.3457 16.1951C13.6512 15.6674 15.6487 14.6058 17.338 13.0102C17.3683 12.9815 17.3959 12.9837 17.4208 13.0168C17.6918 13.3736 17.9748 13.7571 18.2016 14.1234C19.1336 15.6279 19.6617 17.2574 19.7857 19.0121C19.8106 19.3659 19.8184 19.6392 19.8091 19.832C19.7254 21.537 18.2985 22.9126 16.4998 22.9229C14.9072 22.9315 13.5071 21.845 13.2046 20.325C13.1333 19.9653 13.1553 19.4669 13.0946 19.0867C12.9071 17.9169 12.3355 16.9702 11.3797 16.2464C11.3754 16.2428 11.3678 16.2386 11.3567 16.2337Z"></path>
      <path fill="#c8c8c8" d="M7.98752 22.874C6.63495 22.6386 5.5466 21.5882 5.30446 20.2814C5.27132 20.1026 5.25476 19.8301 5.25476 19.464C5.25447 18.0227 5.25419 16.5813 5.25391 15.1397C5.25391 15.1255 5.25929 15.1232 5.27005 15.1327C6.15449 15.919 7.08397 16.3993 8.29806 16.4793C8.29919 16.4795 8.40794 16.4831 8.62431 16.4899C10.205 16.5404 11.544 17.5764 11.8528 19.0813C12.3099 21.3064 10.2955 23.2756 7.98752 22.874Z"></path>
    </g>
  </g>
</svg>
